X: 1771
T: Sevil Neş`elen...
C: Sadettin Öktenay
O: Turkey
F: http://compmusic.upf.edu/node/140
N: nihavent--sarki--duyek--sevil_neselen--sadettin_oktenay
N: makam= nihavent
N: form= sarki
N: usul= duyek = 8/4
M: 8/4
L: 1/16
K: C _B _e  
Q: 1/4=240
%%MIDI tuningsystem comma53
z2 g4 d2 g8  | z2 e4 d2 c8  | z2 f4 =e2 f8  | \
w:   |   |   | 
z2 d4 c2 B8  | z2 e4 d2 c4 B4  | 
w:   |   | 
c2 A14  | z2 d4 c2 B4 A2 B2  | G2 A2 B2 c2 d2 e2 f2 g2  | \
w:   |   |   | 
z2 g4 d2 g8  | z2 e4 d2 c8  | 
w:   |   | 
z2 f4 =e2 f8  | z2 d4 c2 B8  | z2 e4 d2 c4 B4  | \
w:   |   |   | 
c2 A14  | z2 d4 c2 B4 A2 B2  | 
w:   |   | 
G16  | G2 G4 z2 A6 B2  | G16  | c2 c4 d2 e2 f6  | \
w:   |  Se vil  neş e  |  len   |  *  sev me  ya nar  | 
d6 e2 d2 c2 B2 A2  | G2 G4 z2 A6 B2  | 
w:  sın   SAZ  |  Se vil  neş e  | 
G16  | c2 c4 d2 e2 f6  | d2 B2 c2 d2 e2 f2 g2 a2  | \
w:  len   |  *  sev me  ya nar  |  sın   SAZ  | 
b2 b4 c'2 a4 g4  | f16  | a6 b2 g2 f6  | 
w:  *  Bir sa rı  sa  |  çı   |  ok şar  ka nar  | 
e16  | e2 e4 z2 g4 g4  | f16  | a4 g4 e2 f6  | \
w:  sın    |  O  bir  göl ge  |  dir   |  var lık  sa nır  | 
d2 B2 c2 d2 e2 f2 g2 a2  | b2 b4 c'2 a4 g4  | 
w:  sın   SAZ  |  *  Bir sa rı  sa  | 
f16  | a6 b2 g2 f6  | e16  | e2 e4 z2 g4 g4  | f16  | \
w:  çı   |  ok şar  ka nar  |  sın    |  O  bir  göl ge  |  dir   | 
a4 g4 e2 f6  | d16  | d2 g6 f4 z4  | 
w:  var lık  sa nır  |  sın    |  Se vil  de   | 
e4 c4 z8  | c6 f2 e4 z4  | d4 B4 z8  | z2 e4 d2 c4 B4  | A16  | \
w:  sev me   |  ağ la ma   |  ağ lat    |  Yok sa  zeh ro  |  lur   | 
d2 c6 B4 z2 c2  | 
w:  bu  tat lı  ha  | 
d16  | d2 g6 f4 z4  | e4 c4 z8  | c6 f2 e4 z4  | \
w:  yat    |  Se vil  de   |  sev me   |  ağ la ma   | 
d4 B4 z8  | z2 e4 d2 c4 B4  | A16  | 
w:  ağ lat    |  Yok sa  zeh ro  |  lur   | 
d2 c6 A4 z2 B2  | G16  | z2 g4 d2 g8  | \
w:  bu  tat lı  ha  |  yat    |   | 
z2 e4 d2 c8  | z2 f4 =e2 f8  | z2 d4 c2 B8  | 
w:   |   |   | 
z2 e4 d2 c4 B4  | c2 A14  | z2 d4 c2 B4 A2 B2  | \
w:   |   |   | 
G2 A2 B2 c2 d2 e2 f2 g2  | 
w:   | 
z2 g4 d2 g8  | z2 e4 d2 c8  | z2 f4 =e2 f8  | \
w:   |   |   | 
z2 d4 c2 B8  | z2 e4 d2 c4 B4  | 
w:   |   | 
c2 A14  | z2 d4 c2 B4 A2 B2  | G16  | G2 G4 z2 A6 B2  | G16  | \
w:   |   |   |  Se vil  neş e  |  len   | 
c2 c4 d2 e2 f6  | d6 e2 d2 c2 B2 A2  | 
w:  *  sev me  ya nar  |  sın   SAZ  | 
G2 G4 z2 A6 B2  | G16  | c2 c4 d2 e2 f6  | \
w:  Se vil  neş e  |  len   |  *  sev me  ya nar  | 
d2 B2 c2 d2 e2 f2 g2 a2  | b2 b4 c'2 a4 g4  | 
w:  sın   SAZ  |  *  Bir sa rı  sa  | 
f16  | a6 b2 g2 f6  | e16  | e2 e4 z2 g4 g4  | f16  | \
w:  çı   |  ok şar  ka nar  |  sın    |  O  bir  göl ge  |  dir   | 
a4 g4 e2 f6  | d2 B2 c2 d2 e2 f2 g2 a2  | 
w:  var lık  sa nır  |  sın   SAZ  | 
b2 b4 c'2 a4 g4  | f16  | a6 b2 g2 f6  | e16  | \
w:  *  Bir sa rı  sa  |  çı   |  ok şar  ka nar  |  sın    | 
e2 e4 z2 g4 g4  | f16  | a4 g4 e2 f6  | 
w:  O  bir  göl ge  |  dir   |  var lık  sa nır  | 
d16  | d2 g6 f4 z4  | e4 c4 z8  | c6 f2 e4 z4  | \
w:  sın    |  Se vil  de   |  sev me   |  ağ la ma   | 
d4 B4 z8  | z2 e4 d2 c4 B4  | A16  | 
w:  ağ lat    |  Yok sa  zeh ro  |  lur   | 
d2 c6 B4 z2 c2  | d16  | d2 g6 f4 z4  | \
w:  bu  tat lı  ha  |  yat    |  Se vil  de   | 
e4 c4 z8  | c6 f2 e4 z4  | d4 B4 z8  | z2 e4 d2 c4 B4  | 
w:  sev me   |  ağ la ma   |  ağ lat    |  Yok sa  zeh ro  | 
A16  | d2 c6 A4 z2 B2  | G16  | |


